X: 12415
T: Far Away In Australia
R: waltz
M: 3/4
K: Dmajor
D2 F2 A2|A2 F2 A2|B2 G2 B2|A6|
D2 F2 A2|B4 A2|E6-|E4 A2|
d2 B2 d2|c2 A2 c2|B2 G2 B2|A4 Bc|
d2 A2 B2|F4 E2|D6-|D6|
D4 E2|F2 A2 B2|F6|E6|
d3-d2 d|c2 B2 A2|B6-|B4 Bc|
d2 B2 d2|c2 A2 c2|B2 A2 B2|F4 D2|
F2 A2 B2|F4 E2|D6-|D6|

